svgs/regular/flower-daffodil.svg

<svg xmlns="http://www.w3.org/2000/svg" viewBox="0 0 512 512"><!-- Font Awesome Pro 6.0.0-alpha2 by @fontawesome - https://fontawesome.com License - https://fontawesome.com/license (Commercial License) --><path d="M495.912 288H448.654C381.144 288 321.135 318.001 280.004 365V283C317.384 295.875 358.766 283 382.269 251.125C405.773 219.25 405.898 175.875 382.519 144C393.896 128.5 400.022 109.875 400.022 90.625C400.022 40.625 359.391 0 309.383 0C290.13 0 271.502 6.125 256 17.5C240.498 6.125 221.87 0 202.617 0C152.609 0 111.978 40.625 111.978 90.625C111.978 109.875 118.104 128.5 129.481 144C118.104 159.5 111.978 178.125 111.978 197.375C111.978 226.625 125.98 254.125 149.859 271.125S204.367 292.625 231.996 283V365C190.865 318.001 130.856 288 63.346 288H16.088C6.962 288 -0.914 297 0.086 307.75C9.962 422.125 106.352 512 223.87 512H288.13C405.648 512 502.038 422.125 511.914 307.625C512.914 297 505.038 288 495.912 288ZM223.87 464C144.358 464 75.097 409.875 53.969 336C129.231 336 182.614 368.25 214.869 421.875L240.123 464H223.87ZM236.747 222.625C226.871 236.125 209.993 242.5 193.615 239C177.238 235.5 164.486 222.75 160.986 206.375C157.485 190.001 163.861 173.125 177.363 163.25L203.242 144L177.363 124.75C166.486 116.75 159.985 104.125 159.985 90.625C159.985 67.125 179.113 48 202.617 48C216.119 48 228.746 54.5 236.747 65.375L256 91.25L275.253 65.375C283.129 54.5 295.881 48 309.383 48C332.887 48 352.015 67.125 352.015 90.625C352.015 104.125 345.514 116.75 334.637 124.75L308.758 144L334.637 163.25C345.514 171.25 352.015 183.875 352.015 197.375C352.015 220.875 332.887 240 309.383 240C295.881 240 283.254 233.5 275.253 222.625L256 196.75L236.747 222.625ZM288.005 464H271.877L297.131 421.875C329.261 368.5 382.519 336 458.156 336C436.903 409.875 367.767 464 288.005 464ZM288.005 144C288.005 126.375 273.628 112 256 112S223.995 126.375 223.995 144S238.372 176 256 176S288.005 161.625 288.005 144Z"/></svg>

<svg xmlns="http://www.w3.org/2000/svg" viewBox="0 0 512 512"><!-- Font Awesome Pro 5.15.1 by @fontawesome - https://fontawesome.com License - https://fontawesome.com/license (Commercial License) --><path d="M495.87 288h-47.26c-67.45 0-127.49 30-168.61 77v-82a90.52 90.52 0 0 0 102.53-139A89.43 89.43 0 0 0 400 90.67 90.76 90.76 0 0 0 309.34 0 89.39 89.39 0 0 0 256 17.47 89.4 89.4 0 0 0 202.65 0 90.75 90.75 0 0 0 112 90.67 89.43 89.43 0 0 0 129.47 144 89.43 89.43 0 0 0 112 197.33a90.48 90.48 0 0 0 120 85.72v82c-41.12-47-101.16-77-168.6-77H16.13c-9.19 0-17 9-16.06 19.65C10.06 422.15 106.43 512 223.83 512h64.34c117.4 0 213.77-89.85 223.76-204.35.92-10.65-6.87-19.65-16.06-19.65zm-272 176c-79.54 0-148.7-54.09-169.91-128 75.25 0 128.67 32.21 160.93 85.92L240.13 464zm12.92-241.37a42.48 42.48 0 1 1-59.38-59.38L203.19 144l-25.82-19.25A42.27 42.27 0 0 1 160 90.67 42.7 42.7 0 0 1 202.65 48a42.26 42.26 0 0 1 34.1 17.38L256 91.2l19.25-25.82A42.24 42.24 0 0 1 309.34 48 42.71 42.71 0 0 1 352 90.67a42.28 42.28 0 0 1-17.38 34.08L308.81 144l25.81 19.25A42.28 42.28 0 0 1 352 197.33 42.71 42.71 0 0 1 309.34 240a42.26 42.26 0 0 1-34.09-17.37L256 196.8zM288 464h-16.13l25.28-42.08c32.07-53.4 85.3-85.92 160.93-85.92-21.22 73.91-90.39 128-170.08 128zm0-320a32 32 0 1 0-32 32 32 32 0 0 0 32-32z"/></svg>
